X:492
T:Lord Kilmaurs
R:Reel
B:The Athole Collection
M:C|
L:1/8
K:E Minor
~E2 EF DEFD|E/E/E EF GAB^c|dedF DEFD|eBdG F2E2:|
|:e3f defd|e/e/e eb agfe|g/a/b fa defd|eBdG F2E2:|
|:EeGe DEFD|EeGe EeGe|faef DEFD|eBdG F2E2:|
|:geef defd|geeb agfe|gbfa defd|eBdG F2E2:|

